X:1
T:Out on the Mountain
T:Out on the Mountain
T:Josephine Querns
T:Josephine Querns, 1896
T:Public Domain Courtesy of the Cyber Hymnal™
T:Public Domain Courtesy of the Cyber Hymnal™
C:Josephine Querns
Z:Public Domain
Z:Courtesy of the Cyber Hymnal™
%%score ( 1 2 ) ( 3 4 )
L:1/8
Q:1/4=80
M:6/8
K:Ab
V:1 treble 
V:2 treble 
V:3 bass 
V:4 bass 
V:1
 [CE] | [Ec]>[Ec][Ec] [Ec][DB][CA] | [FA][EG][DF] [DF][CE][CE] | [Ed]>[Ed][Ed] [Ed][Ec][DB] | %4
w: 1.~Far|out on the mount- ain of|sin I had wan- dered, Far|out on the mount- ain so|
w: 2.~“So|long I have sought thee, and|pa- tient- ly wait- ed, So|long I have sought thee— Oh|
w: 3.~Come|all who are wan- der- ing,|foot- sore and wea- ry, Come|trust in His love, ’tis so|
 [=DA][DG][DA] [_DB]2 [DE] | [Cc]>[Ec][Ec] [Ec][DB][CA] | [_GA][GB][Gc] [Fe][Fd][Fd] | %7
w: drear- y and cold; When|gent- ly I heard a sweet|voice to me call- ing, “Oh|
w: list- en to Me; My|love hath re- deemed thee, Oh|come back, dear lost one, My|
w: bound- less and free; Oh|hear His sweet voice as ’tis|now gent- ly call- ing, “Oh|
 [Fd][Fc][FB] [Ec][EA]E | E[=DF][_DG] [CA]2 ||"^Refrain" E | (z2 [GB]2) d x | z2 [Ac]2 [Ec] x | %12
w: come back, thou lost one, come|in- to the fold.”||||
w: love hath re- deemed thee, Oh|come un- to Me.”|Come|* home,|* come|
w: come back, My loved one, Oh|come un- to Me.”||||
 [=Dc][DB][DA] [DF][Dc][DB] | [_DB]3- [DB]2 [DE] | [Cc]>[Ec][Ec] [Ec][DB][CA] | %15
w: |||
w: * home, The Sav- ior is|watch- * ing|for thee; Oh list to the|
w: |||
 [_GA][GB][Gc] [Fe][Fd][Fd] | [Fd][Fc][FB] [Ec][EA]E | E[=DF][_DG] [CA]2 |] %18
w: |||
w: voice that so sweet- ly is|call- ing, “My love hath re-|deemed thee, Oh come|
w: |||
V:2
 x | x6 | x6 | x6 | x6 | x6 | x6 | x5 E | E x4 || x | B3- G x2 | c3- A x2 | x6 | x6 | x6 | x6 | %16
 x5 E | E x4 |] %18
V:3
 [A,,A,] | [A,,A,]>[A,,A,][A,,A,] [A,,A,][A,,A,][A,,A,] | %2
w: ~|~ ~ ~ ~ ~ ~|
 [D,A,][D,A,][D,A,] [A,,A,][A,,A,][A,,A,] | [E,G,]>[E,G,][E,G,] [E,G,][E,G,][E,G,] | %4
w: ~ ~ ~ ~ ~ ~|~ ~ ~ ~ ~ ~|
 [F,B,][F,B,][F,B,] [E,G,]2 [E,G,] | [A,,A,]>[A,,A,][A,,A,] [A,,A,]A,A, | %6
w: ~ ~ ~ ~ ~|~ ~ ~ ~ ~ ~|
 [A,C][A,C][A,C] [D,A,][D,A,][D,A,] | [B,,B,][C,=A,][D,B,] [E,A,][E,C][E,C] | %8
w: ~ ~ ~ ~ ~ ~|~ ~ ~ ~ ~ ~|
 [E,C][E,=B,][E,_B,] [A,,A,]2 || z | z2 [E,D] [E,D]2 z | z2 [A,E] [A,E]2 A, | %12
w: ~ ~ ~ ~||Come home,|come home, *|
 [B,,A,][B,,A,][B,,A,] [B,,B,][B,,B,][B,,A,] | [E,G,]3- [E,G,]2 [E,G,] | %14
w: ||
 [A,,A,]>[A,,A,][A,,A,] [A,,A,]A,A, | [A,C][A,C][A,C] [D,A,][D,A,][D,A,] | %16
w: ||
 [B,,B,][C,=A,][D,B,] [E,A,][E,C][E,C] | [E,C][E,=B,][E,_B,] [A,,A,]2 |] %18
w: ||
V:4
 x | x6 | x6 | x6 | x6 | x4 A,A, | x6 | x6 | x5 || x | x6 | x5 A, | x6 | x6 | x4 A,A, | x6 | x6 | %17
 x5 |] %18

